icon/cg/extension-remove.svg

<svg width="24" height="24" fill="none" xmlns="http://www.w3.org/2000/svg"><path fill-rule="evenodd" clip-rule="evenodd" d="M12 11V5H4v14h14v-8h-6ZM6 7h4v4H6V7Zm4 6v4H6v-4h4Zm6 0v4h-4v-4h4Z" fill="currentColor"/><path d="M20 7h-6v2h6V7Z" fill="currentColor"/></svg>

<svg viewBox="0 0 24 24" fill="none" xmlns="http://www.w3.org/2000/svg" height="1em" width="1em">
  <path fill-rule="evenodd" clip-rule="evenodd" d="M12 11V5H4V19H18V11H12ZM6 7H10V11H6V7ZM10 13V17H6V13H10ZM16 13V17H12V13H16Z" fill="currentColor"/>
  <path d="M20 7H14V9H20V7Z" fill="currentColor"/>
</svg>
